src/assets/icons/os/windows.svg

<svg width="24" height="24" viewBox="0 0 24 24" fill="currentColor" xmlns="http://www.w3.org/2000/svg">
    <path
        d="M11.3844 2V11.3844H2V2H11.3844ZM11.3844 12.6156V22H2V12.6156H11.3844ZM22 2V11.3844H12.6156V2H22ZM22 12.6156V22H12.6156V12.6156H22Z" />
</svg>

<svg xmlns="http://www.w3.org/2000/svg" width="24" height="24" fill="currentColor" viewBox="0 0 24 24"><path d="M11.384 2v9.384H2V2zm0 10.616V22H2v-9.384zM22 2v9.384h-9.384V2zm0 10.616V22h-9.384v-9.384z"/></svg>
